X:1006
T:Silver City Waltz #1, The
C:Joe Buchanan's Scottish Tome - Page 595.0
I:595 0
Z:Carl Allison
R:Waltz
L:1/4
M:3/4
K:C
"C"G,3 | "C"(C2 E) | "C"A3 | "C"G3 | "C"(A2 G) | "C7"(E2 G) | "G7"B,3- | B,3 |
"G"G,3 | "G"(B,2 D) | "G"A3 | "G7"G3 | "G"(A2 G) | "G"(^F2 G) | "C"E3- | "C7"E3 | 
"C"G,3 | "C"(C2 E) | "C"A3 | "C"G3 | "C"(c B c) | "C"(d2 c) | "F"A3- | "F"A3 |
"F"(c B) c | "C"(d c B) | "C"G3 | "A7"E3 | "D7"[A,A]3 | "G7"[B,B]3 | "C"[Cc]3- | "C"[Cc]3 :|
[K:F] "F"(c ^B c) | "F"d z c | "F"A zc | "F"F2 c | "F"(f e d) | "F"(c2 "D"d) | "C7"E3- | "C7"E3 |
"G"B A G | "C7"G A B | "F"c A "A7"G | "Dm"F2 A | "G"G B d | "G7"f e d | "C"c3- | "C"c3 |
"F"(c ^B c) | "F"d z c | "F"A z c | "F"F2 c | "F"(f e f) | "F7"(g2 f) | "Bdim"d3- | "B"d3 |
"F"(f e f) | "G"(g f d) | "C"c3 | "F"(A2 c) | "D"d3 | "C"e3 |1 "F"f3- |  f3 :|2 "G7"f ^f | "G"g3 |]
[K:C] "G"G3 | "C"(c2 e) | "C"a3 | "G"g3 | "A7"a2 g | "C"(e2 g) | "G"B3 | B3 |
"G"G3 | "D"(B2 d) | "G"a3 | "G7"g3 | "G7"(a2 g) | "G7"(f2 g) | "C"e3- | "C7"e3 |
"G"G3 | "C"(c2 e) | "G"a3 | "G"g3 | "C"c' b c' | "G"d'2 a | "F"a3- | "F"a3 |
"C"c' b c' | "G"d' c' a | "G"g3 | "C"e3 | "F"A3 | "G"B3 | "C"c3- | "C"c3 |]
W:Errata: Added chords for last five lines. Hardly likely to be optimum.

